images/us-pin-4.svg

<svg height="23" viewBox="0 0 23 23" width="23" xmlns="http://www.w3.org/2000/svg" xmlns:xlink="http://www.w3.org/1999/xlink"><mask id="a" fill="#fff"><path d="m.0000106.05275229h22.946994v22.84172201h-22.946994z" fill="none"/></mask><mask id="b" fill="#fff"><path d="m0 22.9472477h22.9470046v-22.84174311h-22.9470046z" fill="none"/></mask><g fill="none" fill-rule="evenodd" transform=""><path d="m22.1273461 12.0202431c0 5.933578-4.8322258 10.7437431-10.7931475 10.7437431-5.96092164 0-10.79325344-4.8101651-10.79325344-10.7437431 0-5.93357796 4.8323318-10.7437431 10.79325344-10.7437431 5.9609217 0 10.7931475 4.81016514 10.7931475 10.7437431" fill="#5cd8ff"/><path d="m11.4735129 22.3141991c-6.00511981 0-10.89055299-4.8631285-10.89055299-10.8405963 0-5.97746794 4.88543318-10.84059638 10.89055299-10.84059638 6.0050138 0 10.890553 4.86312844 10.890553 10.84059638 0 5.9774678-4.8855392 10.8405963-10.890553 10.8405963m0-22.26146791c-6.32648387 0-11.4735023 5.12340826-11.4735023 11.42087161 0 6.2974633 5.14701843 11.4208715 11.4735023 11.4208715 6.3264839 0 11.4735023-5.1234082 11.4735023-11.4208715 0-6.29746335-5.1470184-11.42087161-11.4735023-11.42087161" fill="#000" mask="url(#a)" transform="translate(0 .052752)"/><g fill="#fff"><path d="m11.5795037 15.4827771c-2.13656223 0-3.86866361-1.7240505-3.86866361-3.8509175 0-2.12676143 1.73210138-3.8509174 3.86866361-3.8509174 2.1365622 0 3.8686636 1.72415597 3.8686636 3.8509174 0 2.126867-1.7321014 3.8509175-3.8686636 3.8509175m.0529954-12.13302756c-4.62448389 0-8.37327191 3.73169725-8.37327191 8.33486236 0 4.6032707 3.74878802 8.3348624 8.37327191 8.3348624 4.6244838 0 8.3732719-3.7315917 8.3732719-8.3348624 0-4.60316511-3.7487881-8.33486236-8.3732719-8.33486236"/><path d="m7.18087558 15.6938073h8.69124422v-8.65137611h-8.69124422z" mask="url(#b)"/><path d="m19.3446747 11.8956211c0-.1294541-.092954-.2218761-.2230047-.2218761-.1299447 0-.2227926.092422-.2227926.2218761 0 4.1235413-3.3623456 7.4704633-7.5048894 7.4704633-.1299447 0-.2228986.092422-.2228986.2218762 0 .1294541.0929539.2218761.2228986.2218761 4.3840968 0 7.9506867-3.5503349 7.9506867-7.9142156m-7.9506867 3.3098899c1.8390461 0 3.3251429-1.4792798 3.3251429-3.3098899s-1.4860968-3.30988991-3.3251429-3.30988991c-1.83904606 0-3.32514284 1.47927981-3.32514284 3.30988991s1.48609678 3.3098899 3.32514284 3.3098899m-4.19818892-3.3098899c0-2.31139449 1.87614286-4.17893119 4.19818892-4.17893119.1300507 0 .2230046-.09252752.2230046-.22187615 0-.12945413-.0929539-.22187615-.2230046-.22187615-2.56349307 0-4.64409215 2.07094955-4.64409215 4.62268349 0 .1294541.09295392.2219817.22289862.2219817.1115023 0 .22300461-.0925276.22300461-.2219817m-1.09605069 0c0-2.90306422 2.37779723-5.26995413 5.29423961-5.26995413.1300507 0 .2230046-.09242202.2230046-.22187614 0-.12945413-.0929539-.22187615-.2230046-.22187615-3.17643777 0-5.74003685 2.57030275-5.74003685 5.71370642 0 .1294541.09284793.2219817.22289862.2219817.1115023 0 .22289862-.0925276.22289862-.2219817m5.29423961-6.37944037c.1300507 0 .2230046-.09242201.2230046-.22187614 0-.12934863-.0929539-.22187615-.2230046-.22187615-3.77094007 0-6.83608754 3.05108716-6.83608754 6.80472936 0 .1294541.09295392.2218761.22300461.2218761.1299447 0 .22289862-.092422.22289862-.2218761-.01865438-3.49483945 2.86079723-6.36097707 6.39018431-6.36097707m-7.50478339 6.37944037c0-4.12343578 3.36223963-7.4703578 7.50478339-7.4703578.1300507 0 .2230046-.09252752.2230046-.22187614 0-.12945413-.0929539-.22187615-.2230046-.22187615-4.38399076 0-7.95058063 3.55022936-7.95058063 7.91411009 0 .1294541.09284793.2219817.22289862.2219817s.22289862-.0925276.22289862-.2219817m11.70307829 0c0 2.3113945-1.8761428 4.1790367-4.1982949 4.1790367-.1299447 0-.2228986.092422-.2228986.2218761 0 .1293487.0929539.2218762.2228986.2218762 2.5635991 0 4.6440922-2.0709495 4.6440922-4.622789 0-.1294541-.0928479-.2218761-.2228986-.2218761-.1115023 0-.2228987.092422-.2228987.2218761m1.0960507 0c0 2.9031697-2.3777972 5.2699541-5.2943456 5.2699541-.1299447 0-.2228986.0925276-.2228986.2218762 0 .1294541.0929539.2219816.2228986.2219816 3.1765438 0 5.7401429-2.5703027 5.7401429-5.7138119 0-.1294541-.092848-.2218761-.2230046-.2218761-.1113963 0-.2227927.092422-.2227927.2218761m-5.2943456 6.3794404c-.1299447 0-.2228986.092422-.2228986.2218761s.0929539.2218762.2228986.2218762c3.7709401 0 6.8360876-3.0509817 6.8360876-6.8047294 0-.1293486-.0929539-.2218761-.2228986-.2218761-.1300507 0-.2230046.0925275-.2230046.2218761.0186543 3.4948395-2.8606913 6.3609771-6.3901844 6.3609771m8.8237327-6.3794404c0 4.8446651-3.9567419 8.7832569-8.8237327 8.7832569-4.86699076 0-8.8237327-3.9385918-8.8237327-8.7832569 0-4.84466514 3.95674194-8.78325688 8.8237327-8.78325688 4.8669908 0 8.8237327 3.93859174 8.8237327 8.78325688m-8.8237327.8136514c-.4457972 0-.8174009-.3697936-.8174009-.8136514 0-.4437523.3716037-.8135459.8174009-.8135459.4457973 0 .8174009.3697936.8174009.8135459 0 .4438578-.3716036.8136514-.8174009.8136514" mask="url(#b)"/></g><path d="m19.5566562 11.6846119c0-.1294541-.0929539-.2218761-.2230046-.2218761-.1299447 0-.2227926.092422-.2227926.2218761 0 4.1235413-3.3623456 7.4704633-7.5048894 7.4704633-.1299447 0-.2228986.092422-.2228986.2218762 0 .1294541.0929539.2218761.2228986.2218761 4.3840968 0 7.9506866-3.5503348 7.9506866-7.9142156m-7.9506866 3.3098899c1.8390461 0 3.3251428-1.4792798 3.3251428-3.3098899 0-1.83061007-1.4860967-3.30988988-3.3251428-3.30988988s-3.32514287 1.47927981-3.32514287 3.30988988c0 1.8306101 1.48609677 3.3098899 3.32514287 3.3098899m-4.19818895-3.3098899c0-2.31139447 1.87614285-4.17893117 4.19818895-4.17893117.1300507 0 .2230046-.09252752.2230046-.22187614 0-.12945413-.0929539-.22187615-.2230046-.22187615-2.5634931 0-4.64398619 2.07094954-4.64398619 4.62268346 0 .1294542.09284793.2219817.22279263.2219817.1115023 0 .22300461-.0925275.22300461-.2219817m-1.0960507 0c0-2.90306419 2.37779724-5.2699541 5.29423965-5.2699541.1300507 0 .2230046-.09242202.2230046-.22187615s-.0929539-.22187615-.2230046-.22187615c-3.1764378 0-5.74003688 2.57030276-5.74003688 5.7137064 0 .1294542.09284793.2219817.22289862.2219817.1115023 0 .22289861-.0925275.22289861-.2219817m5.29423965-6.37944034c.1300507 0 .2230046-.09242202.2230046-.22187615 0-.12934862-.0929539-.22187614-.2230046-.22187614-3.77094011 0-6.83608757 3.05108715-6.83608757 6.80472933 0 .1294542.09295391.2218762.22300461.2218762.1299447 0 .22289861-.092422.22289861-.2218762-.01865437-3.49483943 2.86079724-6.36097704 6.39018435-6.36097704m-7.50478342 6.37944034c0-4.12343575 3.36223963-7.47035777 7.50478342-7.47035777.1300507 0 .2230046-.09252752.2230046-.22187615 0-.12945413-.0929539-.22187615-.2230046-.22187615-4.3839908 0-7.95058066 3.55022936-7.95058066 7.91411007 0 .1294542.09284793.2219817.22289862.2219817s.22289862-.0925275.22289862-.2219817m11.70307832 0c0 2.3113945-1.8761428 4.1790367-4.1982949 4.1790367-.1299447 0-.2228986.092422-.2228986.2218762 0 .1293486.0929539.2218761.2228986.2218761 2.5635991 0 4.6440922-2.0709495 4.6440922-4.622789 0-.1294541-.092848-.2218761-.2228987-.2218761-.1115023 0-.2228986.092422-.2228986.2218761m1.0960507 0c0 2.9031698-2.3777972 5.2699542-5.2943456 5.2699542-.1299447 0-.2228986.0925275-.2228986.2218761 0 .1294541.0929539.2219817.2228986.2219817 3.1765438 0 5.7401428-2.5703028 5.7401428-5.713812 0-.1294541-.0928479-.2218761-.2230046-.2218761-.1113963 0-.2227926.092422-.2227926.2218761m-5.2943456 6.3794404c-.1299447 0-.2228986.092422-.2228986.2218761 0 .1294542.0929539.2218762.2228986.2218762 3.7709401 0 6.8360875-3.0509817 6.8360875-6.8047294 0-.1293486-.0929539-.2218761-.2228986-.2218761-.1300507 0-.2230046.0925275-.2230046.2218761.0186544 3.4948395-2.8606912 6.3609771-6.3901843 6.3609771m8.8237327-6.3794404c0 4.8446652-3.9567419 8.7832569-8.8237327 8.7832569s-8.82373273-3.9385917-8.82373273-8.7832569c0-4.84466511 3.95674193-8.78325685 8.82373273-8.78325685s8.8237327 3.93859174 8.8237327 8.78325685m-8.8237327.8136514c-.4457972 0-.8174009-.3697936-.8174009-.8136514 0-.4437523.3716037-.8135458.8174009-.8135458s.8174009.3697935.8174009.8135458c0 .4438578-.3716037.8136514-.8174009.8136514" fill="#000" mask="url(#b)"/></g></svg>

<?xml version="1.0" encoding="UTF-8"?>
<svg width="23px" height="23px" viewBox="0 0 23 23" version="1.1" xmlns="http://www.w3.org/2000/svg" xmlns:xlink="http://www.w3.org/1999/xlink">
    <!-- Generator: Sketch 50.2 (55047) - http://www.bohemiancoding.com/sketch -->
    <title>Group 12</title>
    <desc>Created with Sketch.</desc>
    <defs>
        <polygon id="path-1" points="1.05990783e-05 0.0527522936 22.9470046 0.0527522936 22.9470046 22.8944743 1.05990783e-05 22.8944743"></polygon>
        <polygon id="path-3" points="0 22.9472477 22.9470046 22.9472477 22.9470046 0.105504587 0 0.105504587"></polygon>
    </defs>
    <g id="Future-Project-Desktop" stroke="none" stroke-width="1" fill="none" fill-rule="evenodd">
        <g id="maps" transform="translate(-1061.000000, -396.000000)">
            <g id="about-us/map" transform="translate(48.000000, 44.000000)">
                <g id="map-markers" transform="translate(417.000000, 317.000000)">
                    <g id="Group-12" transform="translate(596.000000, 35.000000)">
                        <path d="M22.1273461,12.0202431 C22.1273461,17.9538211 17.2951203,22.7639862 11.3341986,22.7639862 C5.37327696,22.7639862 0.540945161,17.9538211 0.540945161,12.0202431 C0.540945161,6.08666514 5.37327696,1.2765 11.3341986,1.2765 C17.2951203,1.2765 22.1273461,6.08666514 22.1273461,12.0202431" id="Fill-1" fill="#5CD8FF"></path>
                        <g id="Group-5" transform="translate(0.000000, 0.052752)">
                            <mask id="mask-2" fill="white">
                                <use xlink:href="#path-1"></use>
                            </mask>
                            <g id="Clip-4"></g>
                            <path d="M11.4735129,22.3141991 C5.46839309,22.3141991 0.582959908,17.4510706 0.582959908,11.4736028 C0.582959908,5.49613486 5.46839309,0.633006422 11.4735129,0.633006422 C17.4785267,0.633006422 22.3640659,5.49613486 22.3640659,11.4736028 C22.3640659,17.4510706 17.4785267,22.3141991 11.4735129,22.3141991 M11.4735129,0.0527311927 C5.14702903,0.0527311927 1.05990783e-05,5.17613945 1.05990783e-05,11.4736028 C1.05990783e-05,17.7710661 5.14702903,22.8944743 11.4735129,22.8944743 C17.7999968,22.8944743 22.9470152,17.7710661 22.9470152,11.4736028 C22.9470152,5.17613945 17.7999968,0.0527311927 11.4735129,0.0527311927" id="Fill-3" fill="#000000" mask="url(#mask-2)"></path>
                        </g>
                        <path d="M11.5795037,15.4827771 C9.44294147,15.4827771 7.71084009,13.7587266 7.71084009,11.6318596 C7.71084009,9.50509817 9.44294147,7.7809422 11.5795037,7.7809422 C13.7160659,7.7809422 15.4481673,9.50509817 15.4481673,11.6318596 C15.4481673,13.7587266 13.7160659,15.4827771 11.5795037,15.4827771 M11.6324991,3.34974954 C7.00801521,3.34974954 3.25922719,7.08144679 3.25922719,11.6846119 C3.25922719,16.2878826 7.00801521,20.0194743 11.6324991,20.0194743 C16.2569829,20.0194743 20.005771,16.2878826 20.005771,11.6846119 C20.005771,7.08144679 16.2569829,3.34974954 11.6324991,3.34974954" id="Fill-6" fill="#FFFFFF"></path>
                        <mask id="mask-4" fill="white">
                            <use xlink:href="#path-3"></use>
                        </mask>
                        <g id="Clip-9"></g>
                        <polygon id="Fill-8" fill="#FFFFFF" mask="url(#mask-4)" points="7.18087558 15.6938073 15.8721198 15.6938073 15.8721198 7.04243119 7.18087558 7.04243119"></polygon>
                        <path d="M19.3446747,11.8956211 C19.3446747,11.766167 19.2517207,11.673745 19.12167,11.673745 C18.9917253,11.673745 18.8988774,11.766167 18.8988774,11.8956211 C18.8988774,16.0191624 15.5365318,19.3660844 11.393988,19.3660844 C11.2640433,19.3660844 11.1710894,19.4585064 11.1710894,19.5879606 C11.1710894,19.7174147 11.2640433,19.8098367 11.393988,19.8098367 C15.7780848,19.8098367 19.3446747,16.2595018 19.3446747,11.8956211 M11.393988,15.205511 C13.2330341,15.205511 14.7191309,13.7262312 14.7191309,11.8956211 C14.7191309,10.065011 13.2330341,8.58573119 11.393988,8.58573119 C9.55494194,8.58573119 8.06884516,10.065011 8.06884516,11.8956211 C8.06884516,13.7262312 9.55494194,15.205511 11.393988,15.205511 M7.19579908,11.8956211 C7.19579908,9.58422661 9.07194194,7.71668991 11.393988,7.71668991 C11.5240387,7.71668991 11.6169926,7.62416239 11.6169926,7.49481376 C11.6169926,7.36535963 11.5240387,7.27293761 11.393988,7.27293761 C8.83049493,7.27293761 6.74989585,9.34388716 6.74989585,11.8956211 C6.74989585,12.0250752 6.84284977,12.1176028 6.97279447,12.1176028 C7.08429677,12.1176028 7.19579908,12.0250752 7.19579908,11.8956211 M6.09974839,11.8956211 C6.09974839,8.99255688 8.47754562,6.62566697 11.393988,6.62566697 C11.5240387,6.62566697 11.6169926,6.53324495 11.6169926,6.40379083 C11.6169926,6.2743367 11.5240387,6.18191468 11.393988,6.18191468 C8.21755023,6.18191468 5.65395115,8.75221743 5.65395115,11.8956211 C5.65395115,12.0250752 5.74679908,12.1176028 5.87684977,12.1176028 C5.98835207,12.1176028 6.09974839,12.0250752 6.09974839,11.8956211 M11.393988,5.51618073 C11.5240387,5.51618073 11.6169926,5.42375872 11.6169926,5.29430459 C11.6169926,5.16495596 11.5240387,5.07242844 11.393988,5.07242844 C7.62304793,5.07242844 4.55790046,8.1235156 4.55790046,11.8771578 C4.55790046,12.0066119 4.65085438,12.0990339 4.78090507,12.0990339 C4.91084977,12.0990339 5.00380369,12.0066119 5.00380369,11.8771578 C4.98514931,8.38231835 7.86460092,5.51618073 11.393988,5.51618073 M3.88920461,11.8956211 C3.88920461,7.77218532 7.25144424,4.4252633 11.393988,4.4252633 C11.5240387,4.4252633 11.6169926,4.33273578 11.6169926,4.20338716 C11.6169926,4.07393303 11.5240387,3.98151101 11.393988,3.98151101 C7.00999724,3.98151101 3.44340737,7.53174037 3.44340737,11.8956211 C3.44340737,12.0250752 3.5362553,12.1176028 3.66630599,12.1176028 C3.79635668,12.1176028 3.88920461,12.0250752 3.88920461,11.8956211 M15.5922829,11.8956211 C15.5922829,14.2070156 13.7161401,16.0746578 11.393988,16.0746578 C11.2640433,16.0746578 11.1710894,16.1670798 11.1710894,16.2965339 C11.1710894,16.4258826 11.2640433,16.5184101 11.393988,16.5184101 C13.9575871,16.5184101 16.0380802,14.4474606 16.0380802,11.8956211 C16.0380802,11.766167 15.9452323,11.673745 15.8151816,11.673745 C15.7036793,11.673745 15.5922829,11.766167 15.5922829,11.8956211 M16.6883336,11.8956211 C16.6883336,14.7987908 14.3105364,17.1655752 11.393988,17.1655752 C11.2640433,17.1655752 11.1710894,17.2581028 11.1710894,17.3874514 C11.1710894,17.5169055 11.2640433,17.609433 11.393988,17.609433 C14.5705318,17.609433 17.1341309,15.0391303 17.1341309,11.8956211 C17.1341309,11.766167 17.0412829,11.673745 16.9111263,11.673745 C16.79973,11.673745 16.6883336,11.766167 16.6883336,11.8956211 M11.393988,18.2750615 C11.2640433,18.2750615 11.1710894,18.3674835 11.1710894,18.4969376 C11.1710894,18.6263917 11.2640433,18.7188138 11.393988,18.7188138 C15.1649281,18.7188138 18.2300756,15.6678321 18.2300756,11.9140844 C18.2300756,11.7847358 18.1371217,11.6922083 18.007177,11.6922083 C17.8771263,11.6922083 17.7841724,11.7847358 17.7841724,11.9140844 C17.8028267,15.4089239 14.9234811,18.2750615 11.393988,18.2750615 M20.2177207,11.8956211 C20.2177207,16.7402862 16.2609788,20.678878 11.393988,20.678878 C6.52699724,20.678878 2.5702553,16.7402862 2.5702553,11.8956211 C2.5702553,7.05095596 6.52699724,3.11236422 11.393988,3.11236422 C16.2609788,3.11236422 20.2177207,7.05095596 20.2177207,11.8956211 M11.393988,12.7092725 C10.9481908,12.7092725 10.5765871,12.3394789 10.5765871,11.8956211 C10.5765871,11.4518688 10.9481908,11.0820752 11.393988,11.0820752 C11.8397853,11.0820752 12.2113889,11.4518688 12.2113889,11.8956211 C12.2113889,12.3394789 11.8397853,12.7092725 11.393988,12.7092725" id="Fill-10" fill="#FFFFFF" mask="url(#mask-4)"></path>
                        <path d="M19.5566562,11.6846119 C19.5566562,11.5551578 19.4637023,11.4627358 19.3336516,11.4627358 C19.2037069,11.4627358 19.110859,11.5551578 19.110859,11.6846119 C19.110859,15.8081532 15.7485134,19.1550752 11.6059696,19.1550752 C11.4760249,19.1550752 11.383071,19.2474972 11.383071,19.3769514 C11.383071,19.5064055 11.4760249,19.5988275 11.6059696,19.5988275 C15.9900664,19.5988275 19.5566562,16.0484927 19.5566562,11.6846119 M11.6059696,14.9945018 C13.4450157,14.9945018 14.9311124,13.515222 14.9311124,11.6846119 C14.9311124,9.85400183 13.4450157,8.37472202 11.6059696,8.37472202 C9.7669235,8.37472202 8.28082673,9.85400183 8.28082673,11.6846119 C8.28082673,13.515222 9.7669235,14.9945018 11.6059696,14.9945018 M7.40778065,11.6846119 C7.40778065,9.37321743 9.2839235,7.50568073 11.6059696,7.50568073 C11.7360203,7.50568073 11.8289742,7.41315321 11.8289742,7.28380459 C11.8289742,7.15435046 11.7360203,7.06192844 11.6059696,7.06192844 C9.0424765,7.06192844 6.96198341,9.13287798 6.96198341,11.6846119 C6.96198341,11.8140661 7.05483134,11.9065936 7.18477604,11.9065936 C7.29627834,11.9065936 7.40778065,11.8140661 7.40778065,11.6846119 M6.31172995,11.6846119 C6.31172995,8.78154771 8.68952719,6.4146578 11.6059696,6.4146578 C11.7360203,6.4146578 11.8289742,6.32223578 11.8289742,6.19278165 C11.8289742,6.06332752 11.7360203,5.9709055 11.6059696,5.9709055 C8.4295318,5.9709055 5.86593272,8.54120826 5.86593272,11.6846119 C5.86593272,11.8140661 5.95878065,11.9065936 6.08883134,11.9065936 C6.20033364,11.9065936 6.31172995,11.8140661 6.31172995,11.6846119 M11.6059696,5.30517156 C11.7360203,5.30517156 11.8289742,5.21274954 11.8289742,5.08329541 C11.8289742,4.95394679 11.7360203,4.86141927 11.6059696,4.86141927 C7.83502949,4.86141927 4.76988203,7.91250642 4.76988203,11.6661486 C4.76988203,11.7956028 4.86283594,11.8880248 4.99288664,11.8880248 C5.12283134,11.8880248 5.21578525,11.7956028 5.21578525,11.6661486 C5.19713088,8.17130917 8.07658249,5.30517156 11.6059696,5.30517156 M4.10118618,11.6846119 C4.10118618,7.56117615 7.46342581,4.21425413 11.6059696,4.21425413 C11.7360203,4.21425413 11.8289742,4.12172661 11.8289742,3.99237798 C11.8289742,3.86292385 11.7360203,3.77050183 11.6059696,3.77050183 C7.2219788,3.77050183 3.65538894,7.32073119 3.65538894,11.6846119 C3.65538894,11.8140661 3.74823687,11.9065936 3.87828756,11.9065936 C4.00833825,11.9065936 4.10118618,11.8140661 4.10118618,11.6846119 M15.8042645,11.6846119 C15.8042645,13.9960064 13.9281217,15.8636486 11.6059696,15.8636486 C11.4760249,15.8636486 11.383071,15.9560706 11.383071,16.0855248 C11.383071,16.2148734 11.4760249,16.3074009 11.6059696,16.3074009 C14.1695687,16.3074009 16.2500618,14.2364514 16.2500618,11.6846119 C16.2500618,11.5551578 16.1572138,11.4627358 16.0271631,11.4627358 C15.9156608,11.4627358 15.8042645,11.5551578 15.8042645,11.6846119 M16.9003152,11.6846119 C16.9003152,14.5877817 14.522518,16.9545661 11.6059696,16.9545661 C11.4760249,16.9545661 11.383071,17.0470936 11.383071,17.1764422 C11.383071,17.3058963 11.4760249,17.3984239 11.6059696,17.3984239 C14.7825134,17.3984239 17.3461124,14.8281211 17.3461124,11.6846119 C17.3461124,11.5551578 17.2532645,11.4627358 17.1231078,11.4627358 C17.0117115,11.4627358 16.9003152,11.5551578 16.9003152,11.6846119 M11.6059696,18.0640523 C11.4760249,18.0640523 11.383071,18.1564743 11.383071,18.2859284 C11.383071,18.4153826 11.4760249,18.5078046 11.6059696,18.5078046 C15.3769097,18.5078046 18.4420571,15.4568229 18.4420571,11.7030752 C18.4420571,11.5737266 18.3491032,11.4811991 18.2191585,11.4811991 C18.0891078,11.4811991 17.9961539,11.5737266 17.9961539,11.7030752 C18.0148083,15.1979147 15.1354627,18.0640523 11.6059696,18.0640523 M20.4297023,11.6846119 C20.4297023,16.5292771 16.4729604,20.4678688 11.6059696,20.4678688 C6.7389788,20.4678688 2.78223687,16.5292771 2.78223687,11.6846119 C2.78223687,6.83994679 6.7389788,2.90135505 11.6059696,2.90135505 C16.4729604,2.90135505 20.4297023,6.83994679 20.4297023,11.6846119 M11.6059696,12.4982633 C11.1601724,12.4982633 10.7885687,12.1284697 10.7885687,11.6846119 C10.7885687,11.2408596 11.1601724,10.8710661 11.6059696,10.8710661 C12.0517668,10.8710661 12.4233705,11.2408596 12.4233705,11.6846119 C12.4233705,12.1284697 12.0517668,12.4982633 11.6059696,12.4982633" id="Fill-11" fill="#000000" mask="url(#mask-4)"></path>
                    </g>
                </g>
            </g>
        </g>
    </g>
</svg>
